!!!OTL: Der junge Held Es war ein junger heltt,
!!!ARE: Europa, Mitteleuropa, Deutschland
!!!YOR: 3, S. 142
!!    1603 Handschrift (ca.)
!!!SCT: Q0060
!!!YEM: Copyright 1995, estate of Helmut Schaffrath.
**kern
*ICvox
*Ivox
*M4/4
*k[b-e-]
*g:
{4g
=1
4g
4b-
4a
4a
=2
2.d}
{4a
=3
4b-
4dd
4cc
4b-
=4
2.a}
{4f#
=5
4.g
8a
4b-
8cc
8b-
=6
8a
8g
8f#
8a
4g}
{4g
=7
4g
4b-
4a
4a
=8
2.d}
{4a
=9
4b-
4dd
4cc
4b-
=10
2.a}
{4f#
=11
4.g
8a
4b-
8cc
8b-
=12
8a
8g
8f#
8a
4g}
==
!!!AGN: Ballade, Verfuehrung, Standesunterschied
!!!ONB: ESAC (Essen Associative Code) Database: BALLADE
!!!AMT: simple quadruple
!!!AIN: vox
!!!EED: Helmut Schaffrath
!!!EEV: 1.0
*-
